src/assets/svg/icons/fa/nuevos/classic/duotone/caravan-simple classic duotone.svg

<svg xmlns="http://www.w3.org/2000/svg" viewBox="0 0 640 512"><!--! Font Awesome Pro 6.4.0 by @fontawesome - https://fontawesome.com License - https://fontawesome.com/license (Commercial License) Copyright 2023 Fonticons, Inc. --><defs><style>.fa-secondary{opacity:.4}</style></defs><path class="fa-primary" d="M80 32C35.8 32 0 67.8 0 112V336c0 44.2 35.8 80 80 80h1.1c7.8-54.3 54.4-96 110.9-96s103.1 41.7 110.9 96H576l32 0c17.7 0 32-14.3 32-32s-14.3-32-32-32H576V192c0-88.4-71.6-160-160-160H80zM64 160c0-17.7 14.3-32 32-32H224c17.7 0 32 14.3 32 32v64c0 17.7-14.3 32-32 32H96c-17.7 0-32-14.3-32-32V160zm288-32h64c17.7 0 32 14.3 32 32v64c0 17.7-14.3 32-32 32H352c-17.7 0-32-14.3-32-32V160c0-17.7 14.3-32 32-32z"/><path class="fa-secondary" d="M64 160v64c0 17.7 14.3 32 32 32H224c17.7 0 32-14.3 32-32V160c0-17.7-14.3-32-32-32H96c-17.7 0-32 14.3-32 32zm256 0v64c0 17.7 14.3 32 32 32h64c17.7 0 32-14.3 32-32V160c0-17.7-14.3-32-32-32H352c-17.7 0-32 14.3-32 32zM192 512a80 80 0 1 0 0-160 80 80 0 1 0 0 160z"/></svg>

<svg xmlns="http://www.w3.org/2000/svg" viewBox="0 0 640 512"><defs><style>.fa-secondary{opacity:.4}</style></defs><path class="fa-primary" d="M416 32C504.4 32 576 103.6 576 192V352H608C625.7 352 640 366.3 640 384C640 401.7 625.7 416 608 416H302.9C295.1 361.7 248.4 320 192 320C135.6 320 88.9 361.7 81.13 416H80C35.82 416 0 380.2 0 336V112C0 67.82 35.82 32 80 32H416zM64 224C64 241.7 78.33 256 96 256H224C241.7 256 256 241.7 256 224V160C256 142.3 241.7 128 224 128H96C78.33 128 64 142.3 64 160V224zM352 128C334.3 128 320 142.3 320 160V224C320 241.7 334.3 256 352 256H416C433.7 256 448 241.7 448 224V160C448 142.3 433.7 128 416 128H352z"/><path class="fa-secondary" d="M64 160C64 142.3 78.33 128 96 128H224C241.7 128 256 142.3 256 160V224C256 241.7 241.7 256 224 256H96C78.33 256 64 241.7 64 224V160zM320 160C320 142.3 334.3 128 352 128H416C433.7 128 448 142.3 448 160V224C448 241.7 433.7 256 416 256H352C334.3 256 320 241.7 320 224V160zM112 432C112 387.8 147.8 352 192 352C236.2 352 272 387.8 272 432C272 476.2 236.2 512 192 512C147.8 512 112 476.2 112 432z"/></svg>
